X:163
T:Up in the Air
Z: id:dc-jig-140
M:6/8
L:1/8
K:B Minor
A|FBB BAB|cBc AFE|FBB BAB|cBA B2A|!
FBB BAB|cBc ABc|def edB|FBA B2:|!
c|d3 e3|fdA BAB|d3 e3|fdA B2c|!
d3 e3|fgf ede|fgf edB|FBA B2:|!

